X:20
T:Trimazo
R:Trimazo
O:France
A:Lorraine
C:Trad
Z:Transcrit et/ou corrig par Michel BELLON - 2007-04-27
Z:Pour toute observation mailto:galouvielle@free.fr
M:2/4
L:1/16
K:C
V:1
""z2c2 e2f2|"G7"g2gf e2d2|"C"c2c2 e2f2|"G7"g2gf e2d2|"C"c4c2d2|"C"c2B2 A2B2|"C"c2G2 c2d2|"C"c2B2 A2B2|
"C"c6g2|"C"e4d4|"C"c4e2c2|"G7"d2dd d2f2|"C"e4e2c2|"G7"d2dd d2B2|"C"c4[P:Intro]e2c2|"G7"d2dd d2f2|"C"e4d4|"C"c6g2|"C"e4d4|"C"c8|]
V:2
z2G2 c2d2 | e2ed B2G2 | c2G2 c2d2 | e2ed c2G2  | c2z2 z4 | e4c4 |  e4c4 | e4c4 |
e6 e2 | B4B4 | c4 G2E2 | F2FF F2A2 | G4 G2E2 | F2FF F2D2 | E2C2 g2e2 | f2ff f2a2 | g4f4 | e6c2 | c4B4 | c8  |]
%%footer $D   Galouvielle-MBe 2007 \nDivers (--)
